icons/navigation-17.svg

<svg width="16" height="17" viewBox="0 0 16 17" fill="none" xmlns="http://www.w3.org/2000/svg">
<path fill-rule="evenodd" clip-rule="evenodd" d="M13.8326 2.33377C14.0034 2.50453 14.0484 2.7642 13.945 2.98245L8.80213 13.8396C8.69881 14.0577 8.46959 14.1874 8.22941 14.1636C7.98922 14.1398 7.78988 13.9677 7.73135 13.7335L6.67165 9.49473L2.43285 8.43503C2.1987 8.3765 2.02658 8.17716 2.0028 7.93698C1.97901 7.69679 2.1087 7.46757 2.32682 7.36425L13.1839 2.2214C13.4022 2.11803 13.6619 2.163 13.8326 2.33377ZM4.25906 7.71356L7.28145 8.46916C7.48618 8.52034 7.64604 8.6802 7.69722 8.88493L8.45282 11.9073L12.2272 3.93918L4.25906 7.71356Z" fill="#272431"/>
</svg>

<svg xmlns="http://www.w3.org/2000/svg" width="16" height="17" viewBox="0 0 16 17"><path fill-rule="evenodd" d="M13.833 2.334c.17.17.215.43.112.648L8.802 13.84a.571.571 0 01-1.07-.107l-1.06-4.238-4.24-1.06a.571.571 0 01-.105-1.07L13.184 2.22a.571.571 0 01.649.113zm-9.574 5.38l3.022.755a.571.571 0 01.416.416l.756 3.022 3.774-7.968L4.26 7.714z"/></svg>
